www/assets/icons/sd.svg

<svg xmlns="http://www.w3.org/2000/svg" width="24" height="24" viewBox="0 0 24 24" fill='currentColor'><path d="M19 3H5a2 2 0 0 0-2 2v14a2 2 0 0 0 2 2h14c1.1 0 2-.9 2-2V5c0-1.1-.9-2-2-2m-6 6h4c.55 0 1 .45 1 1v4c0 .55-.45 1-1 1h-4zm-3.5 4.5v-1H7c-.55 0-1-.45-1-1V10c0-.55.45-1 1-1h3c.55 0 1 .45 1 1v1H9.5v-.5h-2v1H10c.55 0 1 .45 1 1V14c0 .55-.45 1-1 1H7c-.55 0-1-.45-1-1v-1h1.5v.5zm5 0h2v-3h-2z"/></svg>

<svg width="24" height="24" viewBox="0 0 24 24" xmlns="http://www.w3.org/2000/svg" fill='currentColor'><path d="M19 3H5C3.89 3 3 3.9 3 5V19C3 20.1 3.89 21 5 21H19C20.1 21 21 20.1 21 19V5C21 3.9 20.1 3 19 3ZM13 9H17C17.55 9 18 9.45 18 10V14C18 14.55 17.55 15 17 15H13V9ZM9.5 13.5V12.5H7C6.45 12.5 6 12.05 6 11.5V10C6 9.45 6.45 9 7 9H10C10.55 9 11 9.45 11 10V11H9.5V10.5H7.5V11.5H10C10.55 11.5 11 11.95 11 12.5V14C11 14.55 10.55 15 10 15H7C6.45 15 6 14.55 6 14V13H7.5V13.5H9.5ZM14.5 13.5H16.5V10.5H14.5V13.5Z"/></svg>
